Simply-Black-Circles/scalable/apps/gnome-robots.svg

<svg xmlns="http://www.w3.org/2000/svg" width="48" height="48" viewBox="0 0 12.7 12.7"><path d="M6.34.07a6.29 6.29 0 0 0-6.29 6.3 6.29 6.29 0 0 0 6.3 6.28 6.29 6.29 0 0 0 6.28-6.29A6.29 6.29 0 0 0 6.34.07zm-.01.94a5.4 5.4 0 0 1 5.4 5.4 5.4 5.4 0 0 1-5.4 5.41 5.4 5.4 0 0 1-5.41-5.4A5.4 5.4 0 0 1 6.32 1zm0 1.06a4.37 4.37 0 0 0-4.31 3.61h8.6a4.37 4.37 0 0 0-4.3-3.61zM4.19 5.98a.46.45 0 0 0-.46.46.46.45 0 0 0 .46.45.46.45 0 0 0 .47-.45.46.45 0 0 0-.47-.46zm2.13 0a.46.45 0 0 0-.46.46.46.45 0 0 0 .46.45.46.45 0 0 0 .47-.45.46.45 0 0 0-.47-.46zm2.13 0a.46.45 0 0 0-.46.46.46.45 0 0 0 .46.45.46.45 0 0 0 .47-.45.46.45 0 0 0-.47-.46zM2.03 7.2a4.37 4.37 0 0 0 8.6 0h-8.6z" fill="#1a1a1a"/></svg>

<?xml version="1.0" encoding="UTF-8" standalone="no"?>
<svg
   xmlns:dc="http://purl.org/dc/elements/1.1/"
   xmlns:cc="http://creativecommons.org/ns#"
   xmlns:rdf="http://www.w3.org/1999/02/22-rdf-syntax-ns#"
   xmlns:svg="http://www.w3.org/2000/svg"
   xmlns="http://www.w3.org/2000/svg"
   xmlns:sodipodi="http://sodipodi.sourceforge.net/DTD/sodipodi-0.dtd"
   xmlns:inkscape="http://www.inkscape.org/namespaces/inkscape"
   width="48"
   height="48"
   viewBox="0 0 12.7 12.7"
   version="1.1"
   id="svg4"
   sodipodi:docname="gnome-robots.svg"
   inkscape:version="0.92.4 (5da689c313, 2019-01-14)">
  <metadata
     id="metadata10">
    <rdf:RDF>
      <cc:Work
         rdf:about="">
        <dc:format>image/svg+xml</dc:format>
        <dc:type
           rdf:resource="http://purl.org/dc/dcmitype/StillImage" />
        <dc:title></dc:title>
      </cc:Work>
    </rdf:RDF>
  </metadata>
  <defs
     id="defs8" />
  <sodipodi:namedview
     pagecolor="#ffffff"
     bordercolor="#666666"
     borderopacity="1"
     objecttolerance="10"
     gridtolerance="10"
     guidetolerance="10"
     inkscape:pageopacity="0"
     inkscape:pageshadow="2"
     inkscape:window-width="1087"
     inkscape:window-height="480"
     id="namedview6"
     showgrid="false"
     inkscape:zoom="4.9166667"
     inkscape:cx="2.1355932"
     inkscape:cy="24"
     inkscape:window-x="0"
     inkscape:window-y="25"
     inkscape:window-maximized="0"
     inkscape:current-layer="svg4" />
  <path
     d="M 6.34,0.07 A 6.29,6.29 0 0 0 0.05,6.37 6.29,6.29 0 0 0 6.35,12.65 6.29,6.29 0 0 0 12.63,6.36 6.29,6.29 0 0 0 6.34,0.07 Z M 6.33,1.01 a 5.4,5.4 0 0 1 5.4,5.4 5.4,5.4 0 0 1 -5.4,5.41 A 5.4,5.4 0 0 1 0.92,6.42 5.4,5.4 0 0 1 6.32,1 Z m 0,1.06 A 4.37,4.37 0 0 0 2.02,5.68 h 8.6 A 4.37,4.37 0 0 0 6.32,2.07 Z M 4.19,5.98 A 0.46,0.45 0 0 0 3.73,6.44 0.46,0.45 0 0 0 4.19,6.89 0.46,0.45 0 0 0 4.66,6.44 0.46,0.45 0 0 0 4.19,5.98 Z m 2.13,0 A 0.46,0.45 0 0 0 5.86,6.44 0.46,0.45 0 0 0 6.32,6.89 0.46,0.45 0 0 0 6.79,6.44 0.46,0.45 0 0 0 6.32,5.98 Z m 2.13,0 A 0.46,0.45 0 0 0 7.99,6.44 0.46,0.45 0 0 0 8.45,6.89 0.46,0.45 0 0 0 8.92,6.44 0.46,0.45 0 0 0 8.45,5.98 Z M 2.03,7.2 a 4.37,4.37 0 0 0 8.6,0 z"
     id="path2"
     inkscape:connector-curvature="0"
     style="fill:#1a1a1a" />
</svg>
